X:1
T:Los Cuatros Generales
M:6/8
L:1/8
K:F
 FFC F G2| A A2- A3| FFC F G2| A A2- A3| GAB d c2| AGA c B2| AFGA-A G|\
 GFGA-A G| G F2- F3-| F3 z2||
